X:124
T:Queen’s March(in F with “Trio” section). JJo.124
S:J.Jones MS,1801,N.Shrops.
N:Slightly more elaborate version than JJ035 and JJ040.
N:includes a section (counter melody or harmony?) labelled “Trio”
A:N. Shropshire
Z:Neil Brookes 2006
M:4/4
L:1/8
Q:1/4=140
K:F
f4c4|A2F>GA2c>c|f2f>f g2g>a|bagf fedc|!
f4c4|A2F>FA2c>c|f2a>g c’2b>a g2g>gg2::!
b3g fedc|.a2.f2.a2.f2|b3g fedc|c’2a2c’2a2|!
f2f>fg2g>a|fedc c’3b|a2a>b g2g>a|f2f>ff4:||!
“Trio”f4a2c’2|c’2c’2 c’bag|f2f2g2g2|agab g2c2|!
f4a2c’2|c’4 c’bag|fedcd2e2|f2f>ff2::!
cg2ec2zc|c’3af2z2|g2gg fedc|c’3af2z2|!
f4a2b2|c’4 bagf|fedcd2e2|f2f>ff2:|

